X: 1
T: Eileen O'Keefe's
M: 2/4
L: 1/8
R: polka
K: Gmaj
dB AG/A/|BG EG/E/|DE GA| BA Ad|
dB AG/A/|BG EG/E/|DE GA|1BG Gd:|2BG GA||
Bd g2|Bd eg/e/|Bd eg/e/|dB AG|
Bd g2|Bd eg/e/|dB AG/A/|BG G2:|
